icon/ir/map-issue.svg

<svg stroke-width="1.5" viewBox="0 0 24 24" fill="none" xmlns="http://www.w3.org/2000/svg" height="1em" width="1em">
  <path d="M9 19L3.78974 20.7368C3.40122 20.8663 3 20.5771 3 20.1675L3 5.43246C3 5.1742 3.16526 4.94491 3.41026 4.86325L9 3M9 19L14.2103 20.7368C14.5988 20.8663 15 20.5771 15 20.1675L15 5.43246C15 5.1742 14.8347 4.94491 14.5897 4.86325L9 3M9 19L9 3" stroke="currentColor" stroke-linecap="round" stroke-linejoin="round"/>
  <path d="M15 5L20.2103 3.26325C20.5988 3.13374 21 3.42292 21 3.83246L21 15" stroke="currentColor" stroke-linecap="round" stroke-linejoin="round"/>
  <path d="M17.1213 22.364L19.2427 20.2427M19.2427 20.2427L21.364 18.1213M19.2427 20.2427L17.1213 18.1213M19.2427 20.2427L21.364 22.364" stroke="currentColor" stroke-linecap="round" stroke-linejoin="round"/>
</svg>

<svg width="24" height="24" stroke-width="1.5" fill="none" xmlns="http://www.w3.org/2000/svg"><path d="m9 19-5.21 1.737a.6.6 0 0 1-.79-.57V5.433a.6.6 0 0 1 .41-.569L9 3m0 16 5.21 1.737a.6.6 0 0 0 .79-.57V5.433a.6.6 0 0 0-.41-.569L9 3m0 16V3M15 5l5.21-1.737a.6.6 0 0 1 .79.57V15M17.121 22.364l2.122-2.121m0 0 2.121-2.122m-2.121 2.122L17.12 18.12m2.122 2.122 2.121 2.121" stroke="currentColor" stroke-linecap="round" stroke-linejoin="round"/></svg>
